X: 76
T:Missa Allez regretz I / Kyrie
N: Derived from Jos0701a-Missa_Allez_regretz_I-Kyrie.krn
C: Josquin des Prez
%%abc-version 2.0
%%abcx-abcm2ps-target-version 5.9.1 (29 Sep 2008)
%%abc-creator hum2abc beta
%%abcx-conversion-date 2019/02/12 16:15:42
%%abc-edited-by Jesse Rodin
%%abc-edited-by Jesse Rodin; Victoria Chang 2012/02/27
%%abcx-initial-encoding-date 2012/02/27/
%%humdrum-veritas 803070198
%%humdrum-veritas-data 65039890
%%linebreak <none>
%%barnumbers 0
L: 1/4
M: 4/2
Q: 1/2=120
%%staves [1 2 3 4]
V: 1 clef=treble
V: 2 clef=treble-8
V: 3 clef=treble-8
V: 4 clef=bass
K: F
[V:1] z8 | 
[V:2] z8 | 
[V:3] F6G2 | 
[V:4] z8 | 
[V:1] z8 | 
[V:2] z8 | 
[V:3] AFc4B2 | 
[V:4] z8 | 
[V:1] z8 | 
[V:2] z8 | 
[V:3] c2c4BA | 
[V:4] C,6D,2 | 
[V:1] z8 | 
[V:2] z8 | 
[V:3] G2B4A2 | 
[V:4] E,C,G,4F,2 | 
[V:1] z8 | 
[V:2] B6c2 | 
[V:3] G2d4G2 | 
[V:4] G,6E,2 | 
[V:1] z8 | 
[V:2] dBf4e2 | 
[V:3] FGAFG4 | 
[V:4] D,4C,4 | 
[V:1] C6D2 | 
[V:2] f4z2F2 | 
[V:3] F8 | 
[V:4] F,8 | 
[V:1] ECG4F2 | 
[V:2] G2B2A4 | 
[V:3] z4z2A2 | 
[V:4] z4D,4 | 
[V:1] G2G4FG | 
[V:2] G2c2d3e | 
[V:3] B2G2B4 | 
[V:4] G,2C,2G,4 | 
[V:1] A8 | 
[V:2] f4z2f2- | 
[V:3] A2c4BA | 
[V:4] F,8 | 
[V:1] z4G4- | 
[V:2] f2ede4 | 
[V:3] B3A/B/c4 | 
[V:4] D,4C,4 | 
[V:1] G2FEF2GA | 
[V:2] c4d4- | 
[V:3] z2G2A4 | 
[V:4] E,4D,4 | 
[V:1] B8 | 
[V:2] d8 | 
[V:3] G3F/E/DEFG | 
[V:4] G,,3A,,B,,C,D,E, | 
[V:1] A4G2G2- | 
[V:2] c4z4 | 
[V:3] ABc4B2 | 
[V:4] F,4C,2G,2 | 
[V:1] G2FED2G2- | 
[V:2] z2A3Bc2 | 
[V:3] c2F4E2 | 
[V:4] C,2D,4C,2 | 
[V:1] G2F4E2 | 
[V:2] A2F2c4 | 
[V:3] F2A2G4 | 
[V:4] D,2F,2C,4 | 
[V:1] F8 ||  
[V:2] c8 ||  
[V:3] F8 ||  
[V:4] F,8 ||  
[V:1]  [K:F] [K:clef=treble][M:2/1]z4A4 | 
[V:2]  [K:F] [K:clef=treble-8][M:2/1]f8- | 
[V:3]  [K:F] [K:clef=treble-8][M:2/1]c8- | 
[V:4]  [K:F] [K:clef=bass][M:2/1]F,8- | 
[V:1] A4A4 | 
[V:2] f8 | 
[V:3] c8 | 
[V:4] F,8 | 
[V:1] G4c4 | 
[V:2] e8 | 
[V:3] c8 | 
[V:4] C,8 | 
[V:1] B2A2BAGF | 
[V:2] d8 | 
[V:3] z2F4ED | 
[V:4] z2F,2B,,4 | 
[V:1] E6DC | 
[V:2] c8 | 
[V:3] ECG4FE | 
[V:4] C,8 | 
[V:1] D2F4E2 | 
[V:2] A4z4 | 
[V:3] F2D2A4- | 
[V:4] z2D,4C,2 | 
[V:1] FEDCB,4 | 
[V:2] F4G4 | 
[V:3] A4z4 | 
[V:4] D,2F,4E,2 | 
[V:1] A,8 | 
[V:2] F4f4 | 
[V:3] c8 | 
[V:4] F,8 | 
[V:1] z8 | 
[V:2] d3ef2e2- | 
[V:3] B4A2G2- | 
[V:4] z8 | 
[V:1] z8 | 
[V:2] e2dcB4 | 
[V:3] G2FED4 | 
[V:4] z4B,,4 | 
[V:1] z4A,4 | 
[V:2] c8 | 
[V:3] C6D2 | 
[V:4] A,,8- | 
[V:1] C6DE | 
[V:2] A4z2A2- | 
[V:3] E4E4 | 
[V:4] A,,8 | 
[V:1] F6E2 | 
[V:2] A2B2A2A2- | 
[V:3] D4z4 | 
[V:4] D,6C,2 | 
[V:1] D4C4 | 
[V:2] AGG2A3G | 
[V:3] D4E4 | 
[V:4] B,,4A,,4 | 
[V:1] D8 | 
[V:2] F2D3EF2 | 
[V:3] D3EFGAB | 
[V:4] B,,4D,4 | 
[V:1] E6DC | 
[V:2] G6A2 | 
[V:3] c8 | 
[V:4] C,8 | 
[V:1] D4E2F2 | 
[V:2] B4c2F2 | 
[V:3] z8 | 
[V:4] z8 | 
[V:1] EDA3G/F/G2- | 
[V:2] z2c3Fc2 | 
[V:3] z8 | 
[V:4] z8 | 
[V:1] GFF4E2 | 
[V:2] BAGFG4 | 
[V:3] z4c4 | 
[V:4] z4C,4 | 
[V:1] F3GABA2- | 
[V:2] F8 | 
[V:3] A8 | 
[V:4] D,8 | 
[V:1] A2G2E2F2- | 
[V:2] z2G4F2 | 
[V:3] c6B2 | 
[V:4] C,6D,2 | 
[V:1] FEDCD4 | 
[V:2] AGFED4 | 
[V:3] c2A4G2 | 
[V:4] A,,4B,,4 | 
[V:1] C4F4 | 
[V:2] E4F4 | 
[V:3] A2c3BB2 | 
[V:4] A,,4D,4 | 
[V:1] E8 ||  
[V:2] G8 ||  
[V:3] c8 ||  
[V:4] C,8 ||  
[V:1]  [K:F] [K:clef=treble][M:4/2]z8 | 
[V:2]  [K:F] [K:clef=treble-8][M:4/2]z8 | 
[V:3]  [K:F] [K:clef=treble-8][M:4/2]c8 | 
[V:4]  [K:F] [K:clef=bass][M:4/2]F,8 | 
[V:1] z8 | 
[V:2] A8 | 
[V:3] c4A4 | 
[V:4] F,4F,4 | 
[V:1] z8 | 
[V:2] d6e2 | 
[V:3] G2B4AG | 
[V:4] G,6F,E, | 
[V:1] z8 | 
[V:2] f6ed | 
[V:3] F2DEFGAB | 
[V:4] D,2F,2D,2C,B,, | 
[V:1] z8 | 
[V:2] c4cdef | 
[V:3] c2A4GF | 
[V:4] A,,8 | 
[V:1] z8 | 
[V:2] g4f2e2- | 
[V:3] E4F2G2 | 
[V:4] z8 | 
[V:1] z8 | 
[V:2] e2d4c2 | 
[V:3] A2B2A2A2- | 
[V:4] z2D,4A,,2 | 
[V:1] z8 | 
[V:2] d8 | 
[V:3] A2GFG4 | 
[V:4] B,,4B,,4 | 
[V:1] z8 | 
[V:2] c3B/A/G2F2- | 
[V:3] A2c4A2 | 
[V:4] A,,3B,,C,2D,2- | 
[V:1] z2F4E2 | 
[V:2] F4G4 | 
[V:3] B2ABc4- | 
[V:4] D,2D,2C,4 | 
[V:1] F4G2A2- | 
[V:2] F4z4 | 
[V:3] c8- | 
[V:4] F,4z2F,2- | 
[V:1] A2G4c2- | 
[V:2] z8 | 
[V:3] c4c4 | 
[V:4] F,2E,2C,4 | 
[V:1] c2B2c2A2- | 
[V:2] z8 | 
[V:3] d4c4- | 
[V:4] G,4A,2F,2- | 
[V:1] A2GFE4 | 
[V:2] z4z2c2- | 
[V:3] c4c4 | 
[V:4] F,2E,D,C,4 | 
[V:1] F4E2F2 | 
[V:2] c2B2c4 | 
[V:3] F4G2A2 | 
[V:4] D,4C,2F,,2 | 
[V:1] GFEDC2D2- | 
[V:2] d2B2c2B2- | 
[V:3] D4z2F2- | 
[V:4] B,,4A,,2B,,2- | 
[V:1] D2G2F2ED | 
[V:2] B2B2A2F2 | 
[V:3] F2G2A2B2 | 
[V:4] B,,2G,,2D,4 | 
[V:1] E4A2G2 | 
[V:2] G4F2c2- | 
[V:3] c4F2G2 | 
[V:4] C,4F,2E,2 | 
[V:1] c3BAGF2 | 
[V:2] cde2fedc | 
[V:3] A2G2F2f2- | 
[V:4] F,2C,2D,4 | 
[V:1] BAGFEDCB, | 
[V:2] d2B2G2c2- | 
[V:3] f2d2cBAG | 
[V:4] B,,4C,4 | 
[V:1] A,F,F4E2 | 
[V:2] c2B2c4 | 
[V:3] F4G4 | 
[V:4] D,4C,4 | 
[V:1] F8 |]  
[V:2] c8 |]  
[V:3] F8 |]  
[V:4] F,8 |]  



